lib/brands/icons/wrike.svg

<svg xmlns="http://www.w3.org/2000/svg" fill="none" aria-hidden="true" viewBox="0 0 48 48"><g id="wrike-Icon"><g id="Group"><path id="Vector" fill="#08CF65" d="M14.4447 20.8988C16.1726 20.8988 16.9966 21.2307 18.2668 22.5009L25.0414 29.4013C25.2359 29.6073 25.2702 29.6874 25.316 29.8133C25.3329 29.857 25.3407 29.9038 25.3389 29.9506C25.3389 29.9964 25.3389 30.065 25.316 30.0994C25.2817 30.2138 25.2359 30.3054 25.0414 30.5113L20.4067 35.2375C20.2008 35.4435 20.1207 35.4778 20.0062 35.5236C19.9604 35.5465 19.9032 35.5465 19.8689 35.5465C19.8231 35.5465 19.7545 35.5465 19.7201 35.5236C19.6057 35.4778 19.5256 35.4435 19.3196 35.2375L6.20535 21.8829C5.82771 21.4939 5.97648 20.8988 6.60587 20.8988H14.4447ZM33.5553 12.4764C31.8045 12.4764 30.992 12.8082 29.7218 14.0785L22.9472 20.9789C22.7527 21.1849 22.7183 21.265 22.6726 21.3909C22.6497 21.4252 22.6497 21.4939 22.6497 21.5282C22.6497 21.574 22.6497 21.6426 22.6726 21.677C22.7069 21.7914 22.7527 21.8829 22.9472 22.0775L27.5818 26.7922C27.7764 26.9982 27.8565 27.044 27.9823 27.0783C28.0167 27.1012 28.0853 27.1012 28.1197 27.1012C28.1654 27.1012 28.2227 27.1012 28.2684 27.0783C28.3829 27.044 28.463 26.9982 28.669 26.7922L41.7947 13.4376C42.1723 13.0486 42.0235 12.4535 41.3941 12.4535H33.5553V12.4764Z"/></g></g></svg>

<svg xmlns="http://www.w3.org/2000/svg" fill="none" aria-hidden="true" viewBox="0 0 48 48"><path fill="#08CF65" d="M14.445 20.899c1.728 0 2.552.332 3.822 1.602l6.774 6.9c.195.206.23.286.275.412a.34.34 0 0 1 .023.138c0 .045 0 .114-.023.148-.034.115-.08.206-.275.412l-4.634 4.726c-.206.206-.286.24-.4.287-.047.023-.104.023-.138.023-.046 0-.114 0-.149-.023-.114-.046-.194-.08-.4-.287L6.205 21.883c-.377-.39-.229-.984.4-.984h7.84Zm19.11-8.423c-1.75 0-2.563.332-3.833 1.602l-6.775 6.9c-.194.207-.229.287-.274.413-.023.034-.023.103-.023.137 0 .046 0 .115.023.149.034.114.08.206.274.4l4.635 4.715c.194.206.274.252.4.286.035.023.103.023.138.023.045 0 .103 0 .148-.023.115-.034.195-.08.401-.286l13.126-13.354c.377-.39.228-.985-.4-.985h-7.84v.023Z"/></svg>
